!!!id: EG055
!!!page: 149-150
!!!COM: Anonymous
!!!LYR: Anonymous
!!!PTL@@FR: Chansons Populaires du Canada
!!!OTL@@FR: J'ai tant d'enfants à marier!
!!!PUB: G. E. Desbarats
!!!YEM:
!!!PDT: 1865
!!!SMA:
!!!OMD:
!!!AGN-Laforte:
!!!AGN-type:
!!!AGN-rime:
**kern
*clefG2
*k[f#,c#,g#]
*A:
*M6/8
*
*
8a
8a
8a
=1
4g#
8a
4b/
!LO:TX:a:t=2
.
4b/
=2
(4cc#
8b)
8a
8a
8a
!!LO:PB:g=original
=3
4g#
8a
4b
!LO:TX:a:t=2
.
4cc#
=4
4a
8r
4ee
8ee
=5
4b
4cc#
4dd
8cc#
!!LO:PB:g=original
=6
4.b
4cc#
8a
=7
8aL
8g#J
8a
4b
!LO:TX:a:t=2
.
4cc#
=8
4.a
==||
8r
8r
==||
*
*
==|
!!!RNB: Two-note tuplets assumed to be encoded incorrectly
!!!RWG: 'ee' in m.4 doubled in upper voice by a dotted quarter in original
!!!RNB: Penultimate eighth rest flipped backward in original
*-
